X: 148114
T: Mrs McDONALD
Q: "Slow."
R: March.
%R: air, jig, march
B: James Kerr "Merry Melodies" v.1 p.48 s.1 #14
Z: 2016 John Chambers <jc:trillian.mit.edu>
N: The 2nd strain has initial repeat but no final repeat; not fixed.
M: 6/8
L: 1/8
K: D
vd/e/ |\
f>ed dBA | AFA AFA | f>ed d<af | fee e2 d/e/ |\
f>ed dBA | AFA AFA | d<af e>de | fdd d2 :|
|: A/G/ |\
FAd dfd | Ace ege | FAd daf | bee e2 f/g/ |\
afd dfd | ecA A2A | FAd ede | fdd d2 |]

%%sep 1 1 500
%%sep 1 1 500

